X: 10363
T: MEG MERRILEES
O: Country dance.
%R: reel
B: W. Hamilton "Universal Tune-Book" Vol. 1 Glasgow 1844 p.36 #3
S: http://imslp.org/wiki/Hamilton's_Universal_Tune-Book_(Various)
Z: 2016 John Chambers <jc:trillian.mit.edu>
M: C
L: 1/8
K: A
% - - - - - - - - - - - - - - - - - - - - - - - - -
cd |\
edcd eagf | feee e2cd |\
efec efec | cBBB B2cd |\
edcd eagf | feee e2cd |\
efec BABc | BAAA A2 :|
|: e2 |\
^defe =dcdB | ceAe ceAe |\
^defe =dcdB | BAAA A2e2 |\
^defe =dcdB | ceAe ceAe |\
dcde fefg | baaa a2 |]
% - - - - - - - - - - - - - - - - - - - - - - - - -

%%sep 1 1 500
%%sep 1 1 500

